X: 10613
T: BISHOP AUCKLAND FLOWER SHOW HORNPIPE
C: Composed by W. B. Laybourn, 1857
R: hornpipe
B: K\"ohler's Violin Repository, v.1, 1885 p.61 #3
F: http://www.archive.org/details/klersviolinrepos01edin
Z: 2011 John Chambers <jc:trillian.mit.edu>
M: C|
L: 1/8
K: E
z2 |\
v[e2E2](3EGB (e>d)c>B | (c>B)a>g f2e2 | (3dBd (3fBf (3afa (3geg | (a>f)e'>c' b2b2 e'>bg>e
b>fd>B | e>BG>E c>A(F>B,) | (G,>B,)E>G B>d(e>c) | (3deB (3GAD E2 :: (D>E) | (F>A)d>c (B>g)a>f |
(3^abg (3^^fge (3dec (3^Bc=A | (F>A)d>c (B>g)a>g | (3f^^fg (3a^ab c'2 (3bc'd' | (3e'bg (3bfd
(3eBG (3cAF | (3EGB, (3EBG (3AcC (3EAc | (3Bag (3afd (3Bed (3eBG | (3Fdc (3BAF E2 :|

%%sep 2 1 500

